www/assets/icons/desk.svg

<svg xmlns="http://www.w3.org/2000/svg" width="24" height="24" viewBox="0 0 24 24" fill='currentColor'><path d="M2 6v12h2V8h10v10h2v-2h4v2h2V6zm18 2v2h-4V8zm-4 6v-2h4v2z"/></svg>

<svg width="24" height="24" viewBox="0 0 24 24" xmlns="http://www.w3.org/2000/svg" fill='currentColor'><path d="M2 6V18H4V8H14V18H16V16H20V18H22V6H2ZM20 8V10H16V8H20ZM16 14V12H20V14H16Z"/></svg>
